**harm	**harte	**timestamp	**phrase	**leadinstrument	**kern
*M4/4	*M4/4	*	*	*	*
*E:	*E:	*	*	*	*E:
1r;	N	0	.	r	1r;
=1	=1	=1	=1	=1	=1
*>B_intro	*>B_intro	*>B_intro	*>B_intro	*>B_intro	*>B_intro
1-VII	D:maj	0.277	newline	r	1D 1f# 1a
=2	=2	=2	=2	=2	=2
1V	B:maj	2.361	.	r	1B 1dd# 1ff#
=3	=3	=3	=3	=3	=3
1IV	A:maj	4.446	.	r	1A 1cc# 1ee
=4	=4	=4	=4	=4	=4
1-III	G:maj	6.53	.	r	1G 1b 1dd
=5	=5	=5	=5	=5	=5
2I	E:maj	8.614	newline	r	2E 2g# 2b
2IV	A:maj	9.673	.	r	2A 2cc# 2ee
=6	=6	=6	=6	=6	=6
2I	E:maj	10.732	.	r	2E 2g# 2b
2IV	A:maj	11.791	.	r	2A 2cc# 2ee
=7	=7	=7	=7	=7	=7
*>A_verse	*>A_verse	*>A_verse	*>A_verse	*>A_verse	*>A_verse
2I	E:maj	12.85	newline	voice	2E 2g# 2b
2IV	A:maj	13.923	.	voice	2A 2cc# 2ee
=8	=8	=8	=8	=8	=8
2I	E:maj	14.995	.	voice	2E 2g# 2b
2IV	A:maj	16.067	.	voice	2A 2cc# 2ee
=9	=9	=9	=9	=9	=9
2I	E:maj	17.14	.	voice	2E 2g# 2b
2IV	A:maj	18.212	.	voice	2A 2cc# 2ee
=10	=10	=10	=10	=10	=10
2I	E:maj	19.285	.	voice	2E 2g# 2b
2IV	A:maj	20.357	.	voice	2A 2cc# 2ee
=11	=11	=11	=11	=11	=11
2I	E:maj	21.429	newline	voice	2E 2g# 2b
2IV	A:maj	22.505	.	voice	2A 2cc# 2ee
=12	=12	=12	=12	=12	=12
2I	E:maj	23.582	.	voice	2E 2g# 2b
2IV	A:maj	24.658	.	voice	2A 2cc# 2ee
=13	=13	=13	=13	=13	=13
2I	E:maj	25.734	.	voice	2E 2g# 2b
2IV	A:maj	26.81	.	voice	2A 2cc# 2ee
=14	=14	=14	=14	=14	=14
2I	E:maj	27.886	.	voice	2E 2g# 2b
2IV	A:maj	28.962	.	voice	2A 2cc# 2ee
=15	=15	=15	=15	=15	=15
1V7	B:7	30.038	newline	voice	1B 1dd# 1ff# 1aa
=16	=16	=16	=16	=16	=16
1IVm7	A:7	32.165	.	voice	1A 1cc# 1ee 1gg#
=17	=17	=17	=17	=17	=17
1V7	B:7	34.293	.	voice	1B 1dd# 1ff# 1aa
=18	=18	=18	=18	=18	=18
1IVm7	A:7	36.42	.	voice	1A 1cc# 1ee 1gg#
=19	=19	=19	=19	=19	=19
2I	E:maj	38.548	newline	voice	2E 2g# 2b
2IV	A:maj	39.621	.	voice	2A 2cc# 2ee
=20	=20	=20	=20	=20	=20
2I	E:maj	40.694	.	voice	2E 2g# 2b
2IV	A:maj	41.767	.	voice	2A 2cc# 2ee
=21	=21	=21	=21	=21	=21
2I	E:maj	42.84	.	voice	2E 2g# 2b
2IV	A:maj	43.913	.	voice	2A 2cc# 2ee
=22	=22	=22	=22	=22	=22
1-VII	D:maj	44.986	.	voice	1D 1f# 1a
=23	=23	=23	=23	=23	=23
1V	B:maj	47.132	.	voice	1B 1dd# 1ff#
=24	=24	=24	=24	=24	=24
*>A_verse	*>A_verse	*>A_verse	*>A_verse	*>A_verse	*>A_verse
2I	E:maj	49.279	newline	voice	2E 2g# 2b
2IV	A:maj	50.362	.	voice	2A 2cc# 2ee
=25	=25	=25	=25	=25	=25
2I	E:maj	51.445	.	voice	2E 2g# 2b
2IV	A:maj	52.528	.	voice	2A 2cc# 2ee
=26	=26	=26	=26	=26	=26
2I	E:maj	53.612	.	voice	2E 2g# 2b
2IV	A:maj	54.695	.	voice	2A 2cc# 2ee
=27	=27	=27	=27	=27	=27
2I	E:maj	55.778	.	voice	2E 2g# 2b
2IV	A:maj	56.861	.	voice	2A 2cc# 2ee
=28	=28	=28	=28	=28	=28
2I	E:maj	57.945	newline	voice	2E 2g# 2b
2IV	A:maj	59.012	.	voice	2A 2cc# 2ee
=29	=29	=29	=29	=29	=29
2I	E:maj	60.079	.	voice	2E 2g# 2b
2IV	A:maj	61.146	.	voice	2A 2cc# 2ee
=30	=30	=30	=30	=30	=30
2I	E:maj	62.214	.	voice	2E 2g# 2b
2IV	A:maj	63.281	.	voice	2A 2cc# 2ee
=31	=31	=31	=31	=31	=31
2I	E:maj	64.348	.	voice	2E 2g# 2b
2IV	A:maj	65.416	.	voice	2A 2cc# 2ee
=32	=32	=32	=32	=32	=32
1V7	B:7	66.483	newline	voice	1B 1dd# 1ff# 1aa
=33	=33	=33	=33	=33	=33
1IVm7	A:7	68.633	.	voice	1A 1cc# 1ee 1gg#
=34	=34	=34	=34	=34	=34
1V7	B:7	70.783	.	voice	1B 1dd# 1ff# 1aa
=35	=35	=35	=35	=35	=35
1IVm7	A:7	72.932	.	voice	1A 1cc# 1ee 1gg#
=36	=36	=36	=36	=36	=36
2I	E:maj	75.082	newline	voice	2E 2g# 2b
2IV	A:maj	76.152	.	voice	2A 2cc# 2ee
=37	=37	=37	=37	=37	=37
2I	E:maj	77.221	.	voice	2E 2g# 2b
2IV	A:maj	78.291	.	voice	2A 2cc# 2ee
=38	=38	=38	=38	=38	=38
2I	E:maj	79.36	.	voice	2E 2g# 2b
2IV	A:maj	80.43	.	voice	2A 2cc# 2ee
=39	=39	=39	=39	=39	=39
1-VII	D:maj	81.499	.	voice	1D 1f# 1a
=40	=40	=40	=40	=40	=40
1V	B:maj	83.638	.	voice	1B 1dd# 1ff#
=41	=41	=41	=41	=41	=41
*>C_instrumental	*>C_instrumental	*>C_instrumental	*>C_instrumental	*>C_instrumental	*>C_instrumental
2I	E:maj	85.777	newline	voice	2E 2g# 2b
2IV	A:maj	86.818	.	voice	2A 2cc# 2ee
=42	=42	=42	=42	=42	=42
2I	E:maj	87.859	.	voice	2E 2g# 2b
2IV	A:maj	88.901	.	voice	2A 2cc# 2ee
=43	=43	=43	=43	=43	=43
2I	E:maj	89.942	.	voice	2E 2g# 2b
2-VII	D:maj	90.984	.	voice	2D 2f# 2a
=44	=44	=44	=44	=44	=44
1V	B:maj	92.025	.	voice	1B 1dd# 1ff#
=45	=45	=45	=45	=45	=45
2I	E:maj	94.108	newline	voice	2E 2g# 2b
2IV	A:maj	95.148	.	voice	2A 2cc# 2ee
=46	=46	=46	=46	=46	=46
2I	E:maj	96.188	.	voice	2E 2g# 2b
2IV	A:maj	97.228	.	voice	2A 2cc# 2ee
=47	=47	=47	=47	=47	=47
2I	E:maj	98.269	.	voice	2E 2g# 2b
2IV	A:maj	99.309	.	voice	2A 2cc# 2ee
=48	=48	=48	=48	=48	=48
1V	B:maj	100.349	.	voice	1B 1dd# 1ff#
=49	=49	=49	=49	=49	=49
*>A_outro	*>A_outro	*>A_outro	*>A_outro	*>A_outro	*>A_outro
2I	E:maj	102.43	newline	voice	2E 2g# 2b
2IV	A:maj	103.5	.	voice	2A 2cc# 2ee
=50	=50	=50	=50	=50	=50
2I	E:maj	104.571	.	voice	2E 2g# 2b
2IV	A:maj	105.642	.	voice	2A 2cc# 2ee
=51	=51	=51	=51	=51	=51
2I	E:maj	106.712	.	voice	2E 2g# 2b
2IV	A:maj	107.783	.	voice	2A 2cc# 2ee
=52	=52	=52	=52	=52	=52
2I	E:maj	108.853	.	voice	2E 2g# 2b
2IV	A:maj	109.924	.	voice	2A 2cc# 2ee
=53	=53	=53	=53	=53	=53
2I	E:maj	110.995	newline	voice	2E 2g# 2b
2IV	A:maj	112.065	.	voice	2A 2cc# 2ee
=54	=54	=54	=54	=54	=54
2I	E:maj	113.136	.	voice	2E 2g# 2b
2IV	A:maj	114.206	.	voice	2A 2cc# 2ee
=55	=55	=55	=55	=55	=55
2I	E:maj	115.277	.	voice	2E 2g# 2b
2IV	A:maj	116.348	.	voice	2A 2cc# 2ee
=56	=56	=56	=56	=56	=56
2I	E:maj	117.418	.	voice	2E 2g# 2b
2IV	A:maj	118.489	.	voice	2A 2cc# 2ee
=57	=57	=57	=57	=57	=57
2I	E:maj	119.559	newline	voice	2E 2g# 2b
2IV	A:maj	120.643	.	voice	2A 2cc# 2ee
=58	=58	=58	=58	=58	=58
2I	E:maj	121.727	.	voice	2E 2g# 2b
2IV	A:maj	122.811	.	voice	2A 2cc# 2ee
=59	=59	=59	=59	=59	=59
2I	E:maj	123.894	.	voice	2E 2g# 2b
2IV	A:maj	124.978	.	voice	2A 2cc# 2ee
=60	=60	=60	=60	=60	=60
2I	E:maj	126.062	.	voice	2E 2g# 2b
2IV	A:maj	127.146	.	voice	2A 2cc# 2ee
=61	=61	=61	=61	=61	=61
*>_fadeout	*>_fadeout	*>_fadeout	*>_fadeout	*>_fadeout	*>_fadeout
2I	E:maj	128.23	newline	voice	2E 2g# 2b
2IV	A:maj	129.3	.	voice	2A 2cc# 2ee
=62	=62	=62	=62	=62	=62
2I	E:maj	130.371	.	voice	2E 2g# 2b
2IV	A:maj	131.442	.	voice	2A 2cc# 2ee
=63	=63	=63	=63	=63	=63
2I	E:maj	132.512	.	voice	2E 2g# 2b
2IV	A:maj	133.583	.	voice	2A 2cc# 2ee
=64	=64	=64	=64	=64	=64
2I	E:maj	134.654	.	voice	2E 2g# 2b
2IV	A:maj	135.724	.	voice	2A 2cc# 2ee
=65	=65	=65	=65	=65	=65
2I	E:maj	136.795	newline	voice	2E 2g# 2b
2IV	A:maj	137.858	.	voice	2A 2cc# 2ee
=66	=66	=66	=66	=66	=66
2I	E:maj	138.921	.	voice	2E 2g# 2b
2IV	A:maj	139.985	.	voice	2A 2cc# 2ee
=67	=67	=67	=67	=67	=67
2I	E:maj	141.048	.	voice	2E 2g# 2b
2IV	A:maj	142.111	.	voice	2A 2cc# 2ee
=68	=68	=68	=68	=68	=68
2I	E:maj	143.174	.	voice	2E 2g# 2b
2IV	A:maj	144.237	.	voice	2A 2cc# 2ee
1r;	N	152.742	.	r	1r;
1r;	N	159.086	.	r	1r;
*-	*-	*-	*-	*-	*-
!!!OTL: In The Midnight Hour
!!!COC: Wilson Pickett
!!!BillboardChartDate: 1965/07/10
!!!BillboardPeak: 21
!!!BillboardWeeksOnChart: 12
!!!SampleTargetRank: 85
!!!SampleActualRank: 83
!!!SampleID#: 1018
!!!RDF**harmony: **recip + pitch class of root + harmonic quality
!!!RDF**harte: Chris Harte's syntax, used by MIREX
!!!RDF**phrase: newline = linebreak in original McGill transcription
!!!RDF**timestamp: McGill audio timestamp in seconds
!!!RDF**leadinstrument: original McGill primary instrumentation annotation
!!!RDT: 2017/01/12/
!!!ENC: Nathaniel Condit-Schultz
!!!EST: Awating manual error checking and editing.
